X:1
T:Title
%%score ( 1 2 ) ( 3 4 )
L:1/8
Q:1/4=98
M:6/8
K:F
V:1 treble nm="Grand Piano, Soprano"
V:2 treble 
V:3 bass nm="Choir Pad, Kinshasa, John Fearis, 1902"
V:4 bass 
V:1
 C[CF][CG] [FA]2 [CF] | [CG]3 .[CF]3 | C[CF][FA] [Fc]2 [Fd] | [Fc]6 | [Ec][GB][FA] [EG]2 [EA] | %5
w: By~John~Sylvester~Fearis,~1902 * * * *|||||
 [EG]3 .F3 | [FA][FG][FA] [FG]2 [Fd] | [Ec]6 | [FA]2 [Fc] [_EA]2 [Ec] | [EB]3 .C3 | z3 .A3 | %11
w: ||||||
 [EG]6 | z3 .A3 | D2- [DB] [Fd]3 | [Fc][FA]F [EG]2 [Ec] | F6- | F3 z3 |] %17
w: ||||||
V:2
 x6 | x6 | x6 | x6 | x6 | x6 | x6 | x6 | x6 | x6 | [CF][CF][CF] F-[FG]F | x6 | %12
 [FA][FA][FA] _E-[EG][EF] | .F3 z3 | x6 | x6 | x6 |] %17
V:3
 [F,A,][F,A,][F,B,] [F,C]2 [F,A,] | [C,B,]3 .[F,A,]3 | [F,A,][F,A,][F,C] [F,A,]2 [F,_A,] | %3
 [F,A,]6 | [C,C][C,C][C,C] [C,B,]2 [C,C] | [^C,B,]3 .[D,A,]3 | [G,=B,][G,B,][G,B,] [G,B,]2 [G,B,] | %7
 [C,C]6 | [F,C]2 [F,A,] [^F,C]2 [F,A,] | G,2 C .[C,B,]3 | [F,A,][F,A,][F,A,] [D,=B,]2 [D,B,] | %11
 [C,C]6 | [F,C][F,C][F,C] CB,[F,A,] | B,3 [B,,B,]3 | [C,A,][C,C][C,A,] [C,B,]2 [C,B,] | [F,A,]6- | %16
 [F,A,]3 z3 |] %17
V:4
 x6 | x6 | x6 | x6 | x6 | x6 | x6 | x6 | x6 | x6 | x6 | x6 | z3 .F,3 | x6 | x6 | x6 | x6 |] %17

